Newaita/actions/22/view-calendar-month.svg

<svg height="22" viewBox="0 0 22 22" width="22" xmlns="http://www.w3.org/2000/svg"><g fill="#424242"><path d="m3.636719 1.992188c-1.007813 0-1.816407.808593-1.816407 1.816406v14.554687c0 1.007813.808594 1.820313 1.816407 1.820313h14.554687c1.007813 0 1.820313-.8125 1.820313-1.820313v-14.554687c0-1.007813-.8125-1.816406-1.820313-1.816406zm.910156 1.816406h12.734375c.503906 0 .910156.40625.910156.910156v12.734375c0 .503906-.40625.910156-.910156.910156h-12.734375c-.503906 0-.910156-.40625-.910156-.910156v-12.734375c0-.503906.40625-.910156.910156-.910156zm0 0"/><path d="m15.464844 4.71875c.5 0 .90625.410156.90625.910156 0 .503906-.40625.910156-.90625.910156-.503906 0-.910156-.40625-.910156-.910156 0-.5.40625-.910156.910156-.910156zm0 0"/><path d="m2.730469 7.449219h16.371093v.910156h-16.371093zm0 0"/><path d="m5.683594 10.175781c.253906 0 .457031.207031.457031.457031v4.09375c0 .25-.203125.453126-.457031.453126-.25 0-.453125-.203126-.453125-.453126v-4.09375c0-.25.203125-.457031.453125-.457031zm0 0"/><path d="m6.367188 4.71875c.503906 0 .910156.410156.910156.910156 0 .503906-.40625.910156-.910156.910156-.503907 0-.910157-.40625-.910157-.910156 0-.5.40625-.910156.910157-.910156zm0 0"/><path d="m16.144531 10.175781c.25 0 .457031.207031.457031.457031v4.09375c0 .25-.207031.453126-.457031.453126s-.453125-.203126-.453125-.453126v-4.09375c0-.25.203125-.457031.453125-.457031zm0 0"/><path d="m16.601562 10.632812c0 .25-.207031.453126-.457031.453126h-10.460937c-.25 0-.453125-.203126-.453125-.453126s.203125-.457031.453125-.457031h10.460937c.25 0 .457031.207031.457031.457031zm0 0"/><path d="m16.601562 14.726562c0 .25-.207031.453126-.457031.453126h-10.460937c-.25 0-.453125-.203126-.453125-.453126 0-.253906.203125-.457031.453125-.457031h10.460937c.25 0 .457031.203125.457031.457031zm0 0"/></g></svg>

<svg xmlns="http://www.w3.org/2000/svg" xmlns:xlink="http://www.w3.org/1999/xlink" width="22px" height="22px" viewBox="0 0 22 22" version="1.1">
<g id="surface1">
     <defs>
  <style id="current-color-scheme" type="text/css">
   .ColorScheme-Text { color:#424242; } .ColorScheme-Highlight { color:#eeeeee; }
  </style>
 </defs>
<path style="fill:currentColor" class="ColorScheme-Text" d="M 3.636719 1.992188 C 2.628906 1.992188 1.820312 2.800781 1.820312 3.808594 L 1.820312 18.363281 C 1.820312 19.371094 2.628906 20.183594 3.636719 20.183594 L 18.191406 20.183594 C 19.199219 20.183594 20.011719 19.371094 20.011719 18.363281 L 20.011719 3.808594 C 20.011719 2.800781 19.199219 1.992188 18.191406 1.992188 Z M 4.546875 3.808594 L 17.28125 3.808594 C 17.785156 3.808594 18.191406 4.214844 18.191406 4.71875 L 18.191406 17.453125 C 18.191406 17.957031 17.785156 18.363281 17.28125 18.363281 L 4.546875 18.363281 C 4.042969 18.363281 3.636719 17.957031 3.636719 17.453125 L 3.636719 4.71875 C 3.636719 4.214844 4.042969 3.808594 4.546875 3.808594 Z M 4.546875 3.808594 "/>
     <defs>
  <style id="current-color-scheme" type="text/css">
   .ColorScheme-Text { color:#424242; } .ColorScheme-Highlight { color:#eeeeee; }
  </style>
 </defs>
<path style="fill:currentColor" class="ColorScheme-Text" d="M 15.464844 4.71875 C 15.964844 4.71875 16.371094 5.128906 16.371094 5.628906 C 16.371094 6.132812 15.964844 6.539062 15.464844 6.539062 C 14.960938 6.539062 14.554688 6.132812 14.554688 5.628906 C 14.554688 5.128906 14.960938 4.71875 15.464844 4.71875 Z M 15.464844 4.71875 "/>
     <defs>
  <style id="current-color-scheme" type="text/css">
   .ColorScheme-Text { color:#424242; } .ColorScheme-Highlight { color:#eeeeee; }
  </style>
 </defs>
<path style="fill:currentColor" class="ColorScheme-Text" d="M 2.730469 7.449219 L 19.101562 7.449219 L 19.101562 8.359375 L 2.730469 8.359375 Z M 2.730469 7.449219 "/>
     <defs>
  <style id="current-color-scheme" type="text/css">
   .ColorScheme-Text { color:#424242; } .ColorScheme-Highlight { color:#eeeeee; }
  </style>
 </defs>
<path style="fill:currentColor" class="ColorScheme-Text" d="M 5.683594 10.175781 C 5.9375 10.175781 6.140625 10.382812 6.140625 10.632812 L 6.140625 14.726562 C 6.140625 14.976562 5.9375 15.179688 5.683594 15.179688 C 5.433594 15.179688 5.230469 14.976562 5.230469 14.726562 L 5.230469 10.632812 C 5.230469 10.382812 5.433594 10.175781 5.683594 10.175781 Z M 5.683594 10.175781 "/>
     <defs>
  <style id="current-color-scheme" type="text/css">
   .ColorScheme-Text { color:#424242; } .ColorScheme-Highlight { color:#eeeeee; }
  </style>
 </defs>
<path style="fill:currentColor" class="ColorScheme-Text" d="M 6.367188 4.71875 C 6.871094 4.71875 7.277344 5.128906 7.277344 5.628906 C 7.277344 6.132812 6.871094 6.539062 6.367188 6.539062 C 5.863281 6.539062 5.457031 6.132812 5.457031 5.628906 C 5.457031 5.128906 5.863281 4.71875 6.367188 4.71875 Z M 6.367188 4.71875 "/>
     <defs>
  <style id="current-color-scheme" type="text/css">
   .ColorScheme-Text { color:#424242; } .ColorScheme-Highlight { color:#eeeeee; }
  </style>
 </defs>
<path style="fill:currentColor" class="ColorScheme-Text" d="M 16.144531 10.175781 C 16.394531 10.175781 16.601562 10.382812 16.601562 10.632812 L 16.601562 14.726562 C 16.601562 14.976562 16.394531 15.179688 16.144531 15.179688 C 15.894531 15.179688 15.691406 14.976562 15.691406 14.726562 L 15.691406 10.632812 C 15.691406 10.382812 15.894531 10.175781 16.144531 10.175781 Z M 16.144531 10.175781 "/>
     <defs>
  <style id="current-color-scheme" type="text/css">
   .ColorScheme-Text { color:#424242; } .ColorScheme-Highlight { color:#eeeeee; }
  </style>
 </defs>
<path style="fill:currentColor" class="ColorScheme-Text" d="M 16.601562 10.632812 C 16.601562 10.882812 16.394531 11.085938 16.144531 11.085938 L 5.683594 11.085938 C 5.433594 11.085938 5.230469 10.882812 5.230469 10.632812 C 5.230469 10.382812 5.433594 10.175781 5.683594 10.175781 L 16.144531 10.175781 C 16.394531 10.175781 16.601562 10.382812 16.601562 10.632812 Z M 16.601562 10.632812 "/>
     <defs>
  <style id="current-color-scheme" type="text/css">
   .ColorScheme-Text { color:#424242; } .ColorScheme-Highlight { color:#eeeeee; }
  </style>
 </defs>
<path style="fill:currentColor" class="ColorScheme-Text" d="M 16.601562 14.726562 C 16.601562 14.976562 16.394531 15.179688 16.144531 15.179688 L 5.683594 15.179688 C 5.433594 15.179688 5.230469 14.976562 5.230469 14.726562 C 5.230469 14.472656 5.433594 14.269531 5.683594 14.269531 L 16.144531 14.269531 C 16.394531 14.269531 16.601562 14.472656 16.601562 14.726562 Z M 16.601562 14.726562 "/>
</g>
</svg>
